X: 25454
T: Marche De Trebrivan
R: barndance
M: 4/4
K: Cdorian
M:5/4
g|g>_a fa ge f2 f>f|M:4/4
ge fg e/f/e/d/ cg|M:5/4
g>_a fa ge f2 f>f|
M:4/4
ge fg e/f/e/d/ ce|ge fd c2 ce|df fe/d/ c3g|
_af ge cd/e/ fg|dg e/f/e/d/ c3g|

